resources/envwarehouse.svg

<svg xmlns="http://www.w3.org/2000/svg" width="16" height="16" fill="currentColor" viewBox="0 0 16 16"><path d="M4.93262 7.02051v.00293c.2649.07897.41474.35618.33593.62109C5.08956 8.24352 5 8.86896 5 9.50195c0 .63305.08955 1.25845.26855 1.85745.07884.2649-.07101.5431-.33593.622a.514.514 0 0 1-.14258.0206c-.216 0-.41549-.1405-.47949-.3575C4.10365 10.9527 4 10.2318 4 9.50098s.10365-1.45172.31055-2.14356c.07895-.26384.35522-.41659.62207-.33691m6.13478-.00098c.2668-.07969.5431.07307.6221.33692v-.00196c.2068.69183.3105 1.41275.3105 2.14356 0 .73085-.1036 1.45175-.3105 2.14355-.064.217-.2635.3574-.4795.3574-.047 0-.0947-.0075-.1426-.0215-.2649-.0789-.4148-.3561-.336-.6211.179-.5989.2686-1.2244.2686-1.85738 0-.633-.0896-1.25842-.2686-1.85742-.0788-.26492.0711-.54309.336-.62207m-1.91896.62695c.195-.195.51303-.195.70703 0 .19333.19489.19433.51118 0 .70606L8.64453 9.56348l.43457.65132.06934-.0683c.195-.19502.51203-.19502.70703 0 .19433.1949.19433.5112 0 .706l-.5.5c-.095.094-.22249.1465-.35449.1465-.01497 0-.02994-.0009-.0459-.0019h-.00293c-.14891-.014-.28418-.0949-.36719-.2198l-.66211-.9931-1.06933 1.0683c-.098.097-.22553.1465-.35352.1465-.128 0-.25649-.0485-.35449-.1465-.19453-.195-.19289-.5112.00195-.706l1.20996-1.21095-.43457-.65137-.06933.06836c-.195.195-.51106.19499-.70606 0-.195-.195-.195-.51106 0-.70606l.5-.5c.10596-.10595.25041-.15548.40234-.14453.14892.01399.28418.09486.36719.21973l.66211.99316z"/><path fill-rule="evenodd" d="M12 1c1.657 0 3 1.343 3 3v8c0 1.657-1.343 3-3 3H4c-1.657 0-3-1.343-3-3V4c0-1.657 1.343-3 3-3zM2 5v7c0 1.105.895 2 2 2h8c1.105 0 2-.895 2-2V5zm2-3c-1.105 0-2 .895-2 2h12c0-1.105-.895-2-2-2z" clip-rule="evenodd"/></svg>

<svg width="16" height="16" viewBox="0 0 16 16" xmlns="http://www.w3.org/2000/svg" fill="currentColor"><path d="M4.93262 7.02051V7.02344C5.19752 7.10241 5.34736 7.37962 5.26855 7.64453C5.08956 8.24352 5 8.86896 5 9.50195C5 10.135 5.08955 10.7604 5.26855 11.3594C5.34739 11.6243 5.19754 11.9025 4.93262 11.9814C4.88479 11.9953 4.83687 12.0019 4.79004 12.002C4.57404 12.002 4.37455 11.8615 4.31055 11.6445C4.10365 10.9527 4 10.2318 4 9.50098C4 8.77016 4.10365 8.04926 4.31055 7.35742C4.3895 7.09358 4.66577 6.94083 4.93262 7.02051Z"/><path d="M11.0674 7.01953C11.3342 6.93984 11.6105 7.0926 11.6895 7.35645V7.35449C11.8963 8.04632 12 8.76724 12 9.49805C12 10.2289 11.8964 10.9498 11.6895 11.6416C11.6255 11.8586 11.426 11.999 11.21 11.999C11.163 11.999 11.1153 11.9915 11.0674 11.9775C10.8025 11.8986 10.6526 11.6214 10.7314 11.3564C10.9104 10.7575 11 10.132 11 9.49902C11 8.86602 10.9104 8.2406 10.7314 7.6416C10.6526 7.37668 10.8025 7.09851 11.0674 7.01953Z"/><path d="M9.14844 7.64648C9.34344 7.45148 9.66147 7.45148 9.85547 7.64648C10.0488 7.84137 10.0498 8.15766 9.85547 8.35254L8.64453 9.56348L9.0791 10.2148L9.14844 10.1465C9.34344 9.95148 9.66047 9.95148 9.85547 10.1465C10.0498 10.3414 10.0498 10.6577 9.85547 10.8525L9.35547 11.3525C9.26047 11.4465 9.13298 11.499 9.00098 11.499C8.98601 11.499 8.97104 11.4981 8.95508 11.4971H8.95215C8.80324 11.4831 8.66797 11.4022 8.58496 11.2773L7.92285 10.2842L6.85352 11.3525C6.75552 11.4495 6.62799 11.499 6.5 11.499C6.372 11.499 6.24351 11.4505 6.14551 11.3525C5.95098 11.1575 5.95262 10.8413 6.14746 10.6465L7.35742 9.43555L6.92285 8.78418L6.85352 8.85254C6.65852 9.04754 6.34246 9.04753 6.14746 8.85254C5.95246 8.65754 5.95246 8.34148 6.14746 8.14648L6.64746 7.64648C6.75342 7.54053 6.89787 7.491 7.0498 7.50195C7.19872 7.51594 7.33398 7.59681 7.41699 7.72168L8.0791 8.71484L9.14844 7.64648Z"/><path fill-rule="evenodd" clip-rule="evenodd" d="M12 1C13.657 1 15 2.343 15 4V12C15 13.657 13.657 15 12 15H4C2.343 15 1 13.657 1 12V4C1 2.343 2.343 1 4 1H12ZM2 5V12C2 13.105 2.895 14 4 14H12C13.105 14 14 13.105 14 12V5H2ZM4 2C2.895 2 2 2.895 2 4H14C14 2.895 13.105 2 12 2H4Z"/></svg>
